_includes/icons/ios-restaurant.svg

<svg fill="#666" height="50" viewBox="0 0 50 50" width="50" xmlns="http://www.w3.org/2000/svg"><path d="m17.839844 0c-2.328125 0-3.878906.257813-4.878906.539063-.5.136718-.863282.28125-1.117188.402343-.25.121094-.445312.261719-.445312.261719l-.335938.25-.054687.421875s-1.007813 7.996094-1.007813 13.125c0 3.085938 1.511719 4.925781 2.863281 6.039063.679688.558593 1.308594.976562 1.691407 1.316406.382812.339844.445312.476562.445312.644531 0 .941406-.25 3.726563-.5 6.816406-.25 3.089844-.503906 6.550782-.5 9.183594 0 4.757813.332031 7.320313 1.003906 8.917969.339844.796875.808594 1.378906 1.386719 1.707031.574219.332031 1.160156.375 1.609375.375.445313 0 1.035156-.039062 1.609375-.371094.578125-.328125 1.050781-.914062 1.386719-1.710937.671875-1.59375 1.007812-4.164063 1.003906-8.917969 0-2.628906-.25-6.09375-.5-9.183594-.253906-3.089843-.5-5.871093-.5-6.816406 0-.171875.058594-.296875.4375-.628906.382813-.332031 1.015625-.746094 1.691406-1.300781 1.359375-1.105469 2.871094-2.949219 2.871094-6.070313 0-3.488281-1.003906-13.101562-1.003906-13.101562l-.054688-.496094-.425781-.257813s-.589844-.339843-1.65625-.613281c-1.066406-.273437-2.691406-.53125-5.019531-.53125zm13.164062 0c-.265625 0-.519531.105469-.710937.292969-.1875.1875-.292969.441406-.292969.707031v11c0 .703125.097656 8.996094.097656 11.152344.003907.921875-.269531 4.730469-.546875 8.671875-.273437 3.941406-.550781 8.085937-.550781 10.175781 0 3.027344.089844 4.789063.476563 6.027344.195312.617187.503906 1.15625.992187 1.5s1.046875.425781 1.53125.425781c0 .003906 0 .003906 0 0 1.109375 0 2.527344-.699219 3.460938-2.503906.933593-1.808594 1.539062-4.679688 1.539062-9.449219 0-2.683594-.535156-4.765625-1.046875-6.394531-.511719-1.632813-.953125-2.820313-.953125-3.605469 0-1.398437 1.128906-3.421875 2.410156-5.761719 1.285157-2.339843 2.660157-5.046875 2.664063-8.160156 0-.003906 0-.003906 0-.003906 0-1.742188-.277344-4.390625-1.503906-7.054688-1.226563-2.664062-3.441407-5.339843-7.175782-6.9374997-.125-.0546875-.257812-.0820313-.390625-.0820313zm-13.164062 2c.421875 0 .792969.015625 1.160156.03125v9.96875c-.003906.359375.183594.695313.496094.878906.3125.179688.695312.179688 1.007812 0 .3125-.183593.5-.519531.496094-.878906v-9.789062c.539063.082031 1.011719.167968 1.363281.257812.546875.140625.542969.171875.6875.238281.085938.84375.949219 9.355469.949219 12.292969 0 2.53125-.988281 3.589844-2.132812 4.519531-.570313.46875-1.1875.859375-1.746094 1.347657-.558594.488281-1.121094 1.207031-1.121094 2.132812 0 1.246094.253906 3.898438.503906 6.980469.25 3.078125.496094 6.519531.496094 9.019531.003906 4.652344-.402344 7.085938-.84375 8.140625-.222656.527344-.410156.679688-.539062.753906-.128907.074219-.296875.105469-.613282.105469h-.003906c-.316406 0-.484375-.03125-.613281-.109375-.132813-.074219-.316406-.226562-.539063-.75-.441406-1.054687-.847656-3.488281-.847656-8.140625-.003906-2.503906.242188-5.941406.496094-9.019531.25-3.078125.503906-5.734375.503906-6.980469 0-.929687-.558594-1.644531-1.113281-2.140625-.558594-.492187-1.175781-.890625-1.75-1.363281-1.144531-.945313-2.136719-2.007813-2.136719-4.496094 0-4.578125.832031-11.488281.933594-12.335937.148437-.0625.28125-.121094.566406-.203125.363281-.101563.867188-.203125 1.5-.289063v9.828125c-.003906.359375.183594.695313.496094.878906.3125.179688.695312.179688 1.007812 0 .3125-.183593.5-.519531.496094-.878906v-9.976562c.277344-.007813.53125-.023438.839844-.023438zm14.160156.859375c2.273438 1.375 3.878906 3.101563 4.75 4.996094 1.0625 2.304687 1.324219 4.695312 1.324219 6.222656-.003906 2.511719-1.160156 4.910156-2.417969 7.199219-1.253906 2.289062-2.65625 4.414062-2.65625 6.722656 0 1.398438.558594 2.65625 1.046875 4.203125.484375 1.546875.953125 3.375.953125 5.796875 0 4.59375-.628906 7.199219-1.316406 8.53125-.6875 1.328125-1.265625 1.421875-1.683594 1.421875-.273437 0-.34375-.039062-.375-.058594-.03125-.019531-.125-.097656-.238281-.46875-.234375-.738281-.386719-2.453125-.386719-5.425781 0-1.910156.273438-6.101562.546875-10.035156.273438-3.9375.554688-7.554688.550781-8.816406 0-2.210938-.097656-10.625-.097656-11.148438z"/></svg>

<svg xmlns="http://www.w3.org/2000/svg" viewBox="0 0 50 50" width="50" height="50" fill="#666"><path d="M 17.839844 0 C 15.511719 0 13.960938 0.257813 12.960938 0.539063 C 12.460938 0.675781 12.097656 0.820313 11.84375 0.941406 C 11.59375 1.0625 11.398438 1.203125 11.398438 1.203125 L 11.0625 1.453125 L 11.007813 1.875 C 11.007813 1.875 10 9.871094 10 15 C 10 18.085938 11.511719 19.925781 12.863281 21.039063 C 13.542969 21.597656 14.171875 22.015625 14.554688 22.355469 C 14.9375 22.695313 15 22.832031 15 23 C 15 23.941406 14.75 26.726563 14.5 29.816406 C 14.25 32.90625 13.996094 36.367188 14 39 C 14 43.757813 14.332031 46.320313 15.003906 47.917969 C 15.34375 48.714844 15.8125 49.296875 16.390625 49.625 C 16.964844 49.957031 17.550781 50 18 50 C 18.445313 50 19.035156 49.960938 19.609375 49.628906 C 20.1875 49.300781 20.660156 48.714844 20.996094 47.917969 C 21.667969 46.324219 22.003906 43.753906 22 39 C 22 36.371094 21.75 32.90625 21.5 29.816406 C 21.246094 26.726563 21 23.945313 21 23 C 21 22.828125 21.058594 22.703125 21.4375 22.371094 C 21.820313 22.039063 22.453125 21.625 23.128906 21.070313 C 24.488281 19.964844 26 18.121094 26 15 C 26 11.511719 24.996094 1.898438 24.996094 1.898438 L 24.941406 1.402344 L 24.515625 1.144531 C 24.515625 1.144531 23.925781 0.804688 22.859375 0.53125 C 21.792969 0.257813 20.167969 0 17.839844 0 Z M 31.003906 0 C 30.738281 0 30.484375 0.105469 30.292969 0.292969 C 30.105469 0.480469 30 0.734375 30 1 L 30 12 C 30 12.703125 30.097656 20.996094 30.097656 23.152344 C 30.101563 24.074219 29.828125 27.882813 29.550781 31.824219 C 29.277344 35.765625 29 39.910156 29 42 C 29 45.027344 29.089844 46.789063 29.476563 48.027344 C 29.671875 48.644531 29.980469 49.183594 30.46875 49.527344 C 30.957031 49.871094 31.515625 49.953125 32 49.953125 C 32 49.957031 32 49.957031 32 49.953125 C 33.109375 49.953125 34.527344 49.253906 35.460938 47.449219 C 36.394531 45.640625 37 42.769531 37 38 C 37 35.316406 36.464844 33.234375 35.953125 31.605469 C 35.441406 29.972656 35 28.785156 35 28 C 35 26.601563 36.128906 24.578125 37.410156 22.238281 C 38.695313 19.898438 40.070313 17.191406 40.074219 14.078125 C 40.074219 14.074219 40.074219 14.074219 40.074219 14.074219 C 40.074219 12.332031 39.796875 9.683594 38.570313 7.019531 C 37.34375 4.355469 35.128906 1.679688 31.394531 0.0820313 C 31.269531 0.0273438 31.136719 0 31.003906 0 Z M 17.839844 2 C 18.261719 2 18.632813 2.015625 19 2.03125 L 19 12 C 18.996094 12.359375 19.183594 12.695313 19.496094 12.878906 C 19.808594 13.058594 20.191406 13.058594 20.503906 12.878906 C 20.816406 12.695313 21.003906 12.359375 21 12 L 21 2.210938 C 21.539063 2.292969 22.011719 2.378906 22.363281 2.46875 C 22.910156 2.609375 22.90625 2.640625 23.050781 2.707031 C 23.136719 3.550781 24 12.0625 24 15 C 24 17.53125 23.011719 18.589844 21.867188 19.519531 C 21.296875 19.988281 20.679688 20.378906 20.121094 20.867188 C 19.5625 21.355469 19 22.074219 19 23 C 19 24.246094 19.253906 26.898438 19.503906 29.980469 C 19.753906 33.058594 20 36.5 20 39 C 20.003906 43.652344 19.597656 46.085938 19.15625 47.140625 C 18.933594 47.667969 18.746094 47.820313 18.617188 47.894531 C 18.488281 47.96875 18.320313 48 18.003906 48 L 18 48 C 17.683594 48 17.515625 47.96875 17.386719 47.890625 C 17.253906 47.816406 17.070313 47.664063 16.847656 47.140625 C 16.40625 46.085938 16 43.652344 16 39 C 15.996094 36.496094 16.242188 33.058594 16.496094 29.980469 C 16.746094 26.902344 17 24.246094 17 23 C 17 22.070313 16.441406 21.355469 15.886719 20.859375 C 15.328125 20.367188 14.710938 19.96875 14.136719 19.496094 C 12.992188 18.550781 12 17.488281 12 15 C 12 10.421875 12.832031 3.511719 12.933594 2.664063 C 13.082031 2.601563 13.214844 2.542969 13.5 2.460938 C 13.863281 2.359375 14.367188 2.257813 15 2.171875 L 15 12 C 14.996094 12.359375 15.183594 12.695313 15.496094 12.878906 C 15.808594 13.058594 16.191406 13.058594 16.503906 12.878906 C 16.816406 12.695313 17.003906 12.359375 17 12 L 17 2.023438 C 17.277344 2.015625 17.53125 2 17.839844 2 Z M 32 2.859375 C 34.273438 4.234375 35.878906 5.960938 36.75 7.855469 C 37.8125 10.160156 38.074219 12.550781 38.074219 14.078125 C 38.070313 16.589844 36.914063 18.988281 35.65625 21.277344 C 34.402344 23.566406 33 25.691406 33 28 C 33 29.398438 33.558594 30.65625 34.046875 32.203125 C 34.53125 33.75 35 35.578125 35 38 C 35 42.59375 34.371094 45.199219 33.683594 46.53125 C 32.996094 47.859375 32.417969 47.953125 32 47.953125 C 31.726563 47.953125 31.65625 47.914063 31.625 47.894531 C 31.59375 47.875 31.5 47.796875 31.386719 47.425781 C 31.152344 46.6875 31 44.972656 31 42 C 31 40.089844 31.273438 35.898438 31.546875 31.964844 C 31.820313 28.027344 32.101563 24.410156 32.097656 23.148438 C 32.097656 20.9375 32 12.523438 32 12 Z"/></svg>
